src/epub/images/titlepage.svg

<?xml version="1.0" encoding="utf-8"?>
<svg xmlns="http://www.w3.org/2000/svg" xmlns:svg="http://www.w3.org/2000/svg" version="1.1" viewBox="0 0 1400 340">
	<title>The titlepage for the Standard Ebooks edition of The Lost World, by Arthur Conan Doyle</title>
	<g>
		<path d="m 245.09429,68.245613 18.33918,0 0,61.754387 17.59065,0 0,-61.754387 18.33918,0 0,-15.438597 -54.26901,0 0,15.438597 z"/>
		<path d="m 328.28874,99.029239 24.88889,0 0,30.970761 17.59064,0 0,-77.192984 -17.59064,0 0,30.783626 -24.88889,0 0,-30.783626 -17.59065,0 0,77.192984 17.59065,0 0,-30.970761 z"/>
		<path d="m 431.13377,52.807016 -44.16374,0 0,77.192984 44.16374,0 0,-15.4386 -26.5731,0 0,-15.532161 25.45029,0 0,-15.438597 -25.45029,0 0,-15.345029 26.5731,0 0,-15.438597 z"/>
		<path d="m 494.42178,52.807016 -17.59064,0 0,77.192984 44.16374,0 0,-15.4386 -26.5731,0 0,-61.754384 z"/>
		<path d="m 531.18347,91.356724 c 0,22.549706 16.09357,40.046786 38.92398,40.046786 22.17543,0 38.83041,-17.49708 38.83041,-40.046786 0,-22.549708 -17.40351,-39.953217 -38.83041,-39.953217 -21.23977,0 -38.92398,17.403509 -38.92398,39.953217 z m 18.99415,0 c 0,-11.508772 6.36257,-23.017544 19.92983,-23.017544 13.66081,0 19.83625,11.508772 19.83625,23.017544 0,11.508776 -5.80117,23.017546 -19.83625,23.017546 -14.40936,0 -19.92983,-11.50877 -19.92983,-23.017546 z"/>
		<path d="m 650.14401,51.403507 c -12.44445,0 -25.16959,9.169591 -25.16959,23.578948 0,8.046784 5.4269,15.251462 14.69006,19.836258 9.16959,4.584795 17.40351,7.111107 17.40351,12.725147 0,7.20468 -7.29825,7.57895 -11.13451,7.57895 -8.60818,0 -18.90058,-8.70176 -18.90058,-8.70176 l -8.79532,14.78363 c 0,0 10.94736,10.19883 29.00584,10.19883 15.06433,0 29.09942,-6.45614 29.09942,-24.88889 0,-10.105264 -9.45029,-17.40351 -18.05848,-21.052632 -8.79532,-3.742691 -16.09357,-6.83041 -16.09357,-11.134504 0,-4.210526 3.18129,-6.923976 9.16959,-6.923976 7.95322,0 15.62574,5.333333 15.62574,5.333333 l 7.11111,-14.035088 c 0,0 -9.91813,-7.298246 -23.95322,-7.298246 z"/>
		<path d="m 680.13085,68.245613 18.33918,0 0,61.754387 17.59065,0 0,-61.754387 18.33918,0 0,-15.438597 -54.26901,0 0,15.438597 z"/>
		<path d="m 827.50658,130 19.46199,0 21.98831,-77.192984 -19.46199,0 -13.19298,52.959064 -0.46784,0 -14.03509,-52.959064 -13.28655,0 -14.03509,52.959064 -0.46783,0 -13.19298,-52.959064 -19.55556,0 L 783.24927,130 802.80483,130 815.15571,86.678362 827.50658,130 Z"/>
		<path d="m 871.79022,91.356724 c 0,22.549706 16.09357,40.046786 38.92398,40.046786 22.17544,0 38.83041,-17.49708 38.83041,-40.046786 0,-22.549708 -17.40351,-39.953217 -38.83041,-39.953217 -21.23977,0 -38.92398,17.403509 -38.92398,39.953217 z m 18.99415,0 c 0,-11.508772 6.36257,-23.017544 19.92983,-23.017544 13.66082,0 19.83625,11.508772 19.83625,23.017544 0,11.508776 -5.80117,23.017546 -19.83625,23.017546 -14.40936,0 -19.92983,-11.50877 -19.92983,-23.017546 z"/>
		<path d="m 962.30628,52.807016 0,77.192984 17.59065,0 0,-30.502925 L 1003.4759,130 l 22.3625,0 -26.57305,-31.906433 c 9.45025,-2.994152 15.81285,-10.760234 15.81285,-22.362574 0,-15.157895 -10.8538,-22.923977 -25.16958,-22.923977 l -27.60234,0 z m 17.59065,34.245615 0,-20.210527 2.05848,0 c 6.64327,0 14.59649,0.467836 14.59649,10.105263 0,9.637428 -7.95322,10.105264 -14.59649,10.105264 l -2.05848,0 z"/>
		<path d="m 1051.9657,52.807016 -17.5907,0 0,77.192984 44.1638,0 0,-15.4386 -26.5731,0 0,-61.754384 z"/>
		<path d="m 1092.1893,52.807016 0,77.192984 22.3626,0 c 21.2398,0 38.924,-16.09357 38.924,-38.643276 0,-22.45614 -17.7778,-38.549708 -38.924,-38.549708 l -22.3626,0 z m 17.5907,61.473684 0,-45.754385 2.7134,0 c 13.0995,0 21.9883,10.011696 21.9883,22.923977 -0.093,12.912278 -8.9824,22.830408 -21.9883,22.830408 l -2.7134,0 z"/>
	</g>
	<g>
		<path d="m 257.52029,232.10526 -12.21053,0 L 221.94134,290 l 14.17544,0 4.2807,-11.57895 22.03509,0 4.2807,11.57895 14.17544,0 -23.36842,-57.89474 z m 0.42105,34.73685 -13.05263,0 6.45614,-16.84211 0.14035,0 6.45614,16.84211 z"/>
		<path d="m 288.0784,232.10526 0,57.89474 13.19299,0 0,-22.87719 L 318.9556,290 l 16.77193,0 -19.92983,-23.92982 c 7.08772,-2.24562 11.85965,-8.07018 11.85965,-16.77193 0,-11.36842 -8.14035,-17.19299 -18.87719,-17.19299 l -20.70176,0 z m 13.19299,25.68421 0,-15.15789 1.54386,0 c 4.98245,0 10.94736,0.35088 10.94736,7.57895 0,7.22807 -5.96491,7.57894 -10.94736,7.57894 l -1.54386,0 z"/>
		<path d="m 336.98958,243.68421 13.75439,0 0,46.31579 13.19298,0 0,-46.31579 13.75439,0 0,-11.57895 -40.70176,0 0,11.57895 z"/>
		<path d="m 400.63542,266.77193 18.66666,0 0,23.22807 13.19298,0 0,-57.89474 -13.19298,0 0,23.08772 -18.66666,0 0,-23.08772 -13.19299,0 0,57.89474 13.19299,0 0,-23.22807 z"/>
		<path d="m 490.38761,232.10526 -13.19298,0 0,33.47369 c 0,9.68421 -2.94737,12.49123 -9.40351,12.49123 -6.45614,0 -9.40351,-2.80702 -9.40351,-12.49123 l 0,-33.47369 -13.19298,0 0,37.33334 c 0,14.31579 7.85965,21.61403 22.59649,21.61403 14.73684,0 22.59649,-7.29824 22.59649,-21.61403 l 0,-37.33334 z"/>
		<path d="m 503.11678,232.10526 0,57.89474 13.19298,0 0,-22.87719 17.68421,22.87719 16.77193,0 -19.92982,-23.92982 c 7.08772,-2.24562 11.85965,-8.07018 11.85965,-16.77193 0,-11.36842 -8.14035,-17.19299 -18.8772,-17.19299 l -20.70175,0 z m 13.19298,25.68421 0,-15.15789 1.54386,0 c 4.98246,0 10.94737,0.35088 10.94737,7.57895 0,7.22807 -5.96491,7.57894 -10.94737,7.57894 l -1.54386,0 z"/>
		<path d="m 611.22095,278.07018 c -13.26316,0 -19.08772,-9.26316 -19.08772,-17.05264 0,-7.71929 5.82456,-16.98245 19.08772,-16.98245 6.73684,0 11.36842,3.57895 11.36842,3.57895 l 5.61403,-11.22807 c 0,0 -6.45614,-5.33334 -19.01754,-5.33334 -16.42105,0 -31.36842,13.47369 -31.36842,30.10527 0,16.5614 15.01754,29.89473 31.36842,29.89473 12.5614,0 19.01754,-5.33333 19.01754,-5.33333 l -5.61403,-11.22807 c 0,0 -4.63158,3.57895 -11.36842,3.57895 z"/>
		<path d="m 635.72314,261.01754 c 0,16.91228 12.07017,30.03509 29.19298,30.03509 16.63158,0 29.12281,-13.12281 29.12281,-30.03509 0,-16.91228 -13.05263,-29.96491 -29.12281,-29.96491 -15.92982,0 -29.19298,13.05263 -29.19298,29.96491 z m 14.24561,0 c 0,-8.63157 4.77193,-17.26315 14.94737,-17.26315 10.24562,0 14.87719,8.63158 14.87719,17.26315 0,8.63158 -4.35087,17.26316 -14.87719,17.26316 -10.80702,0 -14.94737,-8.63158 -14.94737,-17.26316 z"/>
		<path d="m 718.05317,254.07018 0.14035,0 23.01755,35.92982 13.19298,0 0,-57.89474 -13.19298,0 0,35.92983 -0.14036,0 -23.01754,-35.92983 -13.19298,0 0,57.89474 13.19298,0 0,-35.92982 z"/>
		<path d="m 797.24069,232.10526 -12.21053,0 L 761.66174,290 l 14.17544,0 4.2807,-11.57895 22.03509,0 4.2807,11.57895 14.17544,0 -23.36842,-57.89474 z m 0.42105,34.73685 -13.05263,0 6.45614,-16.84211 0.14035,0 6.45614,16.84211 z"/>
		<path d="m 840.99177,254.07018 0.14035,0 23.01754,35.92982 13.19299,0 0,-57.89474 -13.19299,0 0,35.92983 -0.14035,0 -23.01754,-35.92983 -13.19298,0 0,57.89474 13.19298,0 0,-35.92982 z"/>
		<path d="m 914.96438,232.10526 0,57.89474 16.77193,0 c 15.92982,0 29.19298,-12.07018 29.19298,-28.98246 0,-16.8421 -13.33334,-28.91228 -29.19298,-28.91228 l -16.77193,0 z m 13.19298,46.10527 0,-34.31579 2.03509,0 c 9.82456,0 16.49122,7.50877 16.49122,17.19298 -0.0702,9.68421 -6.73684,17.12281 -16.49122,17.12281 l -2.03509,0 z"/>
		<path d="m 969.17709,261.01754 c 0,16.91228 12.07017,30.03509 29.19298,30.03509 16.63153,0 29.12283,-13.12281 29.12283,-30.03509 0,-16.91228 -13.0527,-29.96491 -29.12283,-29.96491 -15.92982,0 -29.19298,13.05263 -29.19298,29.96491 z m 14.24561,0 c 0,-8.63157 4.77193,-17.26315 14.94737,-17.26315 10.24563,0 14.87723,8.63158 14.87723,17.26315 0,8.63158 -4.3509,17.26316 -14.87723,17.26316 -10.80702,0 -14.94737,-8.63158 -14.94737,-17.26316 z"/>
		<path d="m 1031.9984,232.10526 21.3333,31.92983 0,25.96491 13.193,0 0,-25.96491 21.3333,-31.92983 -15.8596,0 -12.0702,18.52632 -12.0702,-18.52632 -15.8596,0 z"/>
		<path d="m 1108.1793,232.10526 -13.193,0 0,57.89474 33.1228,0 0,-11.57895 -19.9298,0 0,-46.31579 z"/>
		<path d="m 1172.7199,232.10526 -33.1228,0 0,57.89474 33.1228,0 0,-11.57895 -19.9299,0 0,-11.64912 19.0878,0 0,-11.57895 -19.0878,0 0,-11.50877 19.9299,0 0,-11.57895 z"/>
	</g>
</svg>

<?xml version="1.0" encoding="utf-8"?>
<svg xmlns="http://www.w3.org/2000/svg" xmlns:svg="http://www.w3.org/2000/svg" version="1.1" viewBox="0 0 1400 340">
	<title>The titlepage for the Standard Ebooks edition of The Lost World, by Arthur Conan Doyle</title>
	<g aria-label="THE LOST WORLD">
		<path d="m 245.09429,68.245613 h 18.33918 V 130 h 17.59065 V 68.245613 H 299.3633 V 52.807016 h -54.26901 z"/>
		<path d="m 328.28874,99.029239 h 24.88889 V 130 h 17.59064 V 52.807016 H 353.17763 V 83.590642 H 328.28874 V 52.807016 H 310.69809 V 130 h 17.59065 z"/>
		<path d="M 431.13377,52.807016 H 386.97003 V 130 h 44.16374 v -15.4386 h -26.5731 V 99.029239 h 25.45029 V 83.590642 H 404.56067 V 68.245613 h 26.5731 z"/>
		<path d="M 494.42178,52.807016 H 476.83114 V 130 h 44.16374 v -15.4386 h -26.5731 z"/>
		<path d="m 531.18347,91.356724 c 0,22.549706 16.09357,40.046786 38.92398,40.046786 22.17543,0 38.83041,-17.49708 38.83041,-40.046786 0,-22.549708 -17.40351,-39.953217 -38.83041,-39.953217 -21.23977,0 -38.92398,17.403509 -38.92398,39.953217 z m 18.99415,0 c 0,-11.508772 6.36257,-23.017544 19.92983,-23.017544 13.66081,0 19.83625,11.508772 19.83625,23.017544 0,11.508776 -5.80117,23.017546 -19.83625,23.017546 -14.40936,0 -19.92983,-11.50877 -19.92983,-23.017546 z"/>
		<path d="m 650.14401,51.403507 c -12.44445,0 -25.16959,9.169591 -25.16959,23.578948 0,8.046784 5.4269,15.251462 14.69006,19.836258 9.16959,4.584795 17.40351,7.111107 17.40351,12.725147 0,7.20468 -7.29825,7.57895 -11.13451,7.57895 -8.60818,0 -18.90058,-8.70176 -18.90058,-8.70176 l -8.79532,14.78363 c 0,0 10.94736,10.19883 29.00584,10.19883 15.06433,0 29.09942,-6.45614 29.09942,-24.88889 0,-10.105264 -9.45029,-17.40351 -18.05848,-21.052632 -8.79532,-3.742691 -16.09357,-6.83041 -16.09357,-11.134504 0,-4.210526 3.18129,-6.923976 9.16959,-6.923976 7.95322,0 15.62574,5.333333 15.62574,5.333333 l 7.11111,-14.035088 c 0,0 -9.91813,-7.298246 -23.95322,-7.298246 z"/>
		<path d="m 680.13085,68.245613 h 18.33918 V 130 h 17.59065 V 68.245613 h 18.33918 V 52.807016 h -54.26901 z"/>
		<path d="m 827.50658,130 h 19.46199 l 21.98831,-77.192984 h -19.46199 l -13.19298,52.959064 h -0.46784 L 821.79898,52.807016 h -13.28655 l -14.03509,52.959064 h -0.46783 L 780.81653,52.807016 H 761.26097 L 783.24927,130 h 19.55556 l 12.35088,-43.321638 z"/>
		<path d="m 871.79022,91.356724 c 0,22.549706 16.09357,40.046786 38.92398,40.046786 22.17544,0 38.83041,-17.49708 38.83041,-40.046786 0,-22.549708 -17.40351,-39.953217 -38.83041,-39.953217 -21.23977,0 -38.92398,17.403509 -38.92398,39.953217 z m 18.99415,0 c 0,-11.508772 6.36257,-23.017544 19.92983,-23.017544 13.66082,0 19.83625,11.508772 19.83625,23.017544 0,11.508776 -5.80117,23.017546 -19.83625,23.017546 -14.40936,0 -19.92983,-11.50877 -19.92983,-23.017546 z"/>
		<path d="M 962.30628,52.807016 V 130 h 17.59065 V 99.497075 L 1003.4759,130 h 22.3625 L 999.26535,98.093567 c 9.45025,-2.994152 15.81285,-10.760234 15.81285,-22.362574 0,-15.157895 -10.8538,-22.923977 -25.16958,-22.923977 z m 17.59065,34.245615 V 66.842104 h 2.05848 c 6.64327,0 14.59649,0.467836 14.59649,10.105263 0,9.637428 -7.95322,10.105264 -14.59649,10.105264 z"/>
		<path d="M 1051.9657,52.807016 H 1034.375 V 130 h 44.1638 v -15.4386 h -26.5731 z"/>
		<path d="M 1092.1893,52.807016 V 130 h 22.3626 c 21.2398,0 38.924,-16.09357 38.924,-38.643276 0,-22.45614 -17.7778,-38.549708 -38.924,-38.549708 z M 1109.78,114.2807 V 68.526315 h 2.7134 c 13.0995,0 21.9883,10.011696 21.9883,22.923977 -0.093,12.912278 -8.9824,22.830408 -21.9883,22.830408 z"/>
	</g>
	<g aria-label="ARTHUR CONAN DOYLE">
		<path d="M 257.52029,232.10526 H 245.30976 L 221.94134,290 h 14.17544 l 4.2807,-11.57895 h 22.03509 L 266.71327,290 h 14.17544 z m 0.42105,34.73685 H 244.88871 L 251.34485,250 h 0.14035 z"/>
		<path d="M 288.0784,232.10526 V 290 h 13.19299 V 267.12281 L 318.9556,290 h 16.77193 L 315.7977,266.07018 c 7.08772,-2.24562 11.85965,-8.07018 11.85965,-16.77193 0,-11.36842 -8.14035,-17.19299 -18.87719,-17.19299 z m 13.19299,25.68421 v -15.15789 h 1.54386 c 4.98245,0 10.94736,0.35088 10.94736,7.57895 0,7.22807 -5.96491,7.57894 -10.94736,7.57894 z"/>
		<path d="m 336.98958,243.68421 h 13.75439 V 290 h 13.19298 v -46.31579 h 13.75439 v -11.57895 h -40.70176 z"/>
		<path d="m 400.63542,266.77193 h 18.66666 V 290 h 13.19298 v -57.89474 h -13.19298 v 23.08772 H 400.63542 V 232.10526 H 387.44243 V 290 h 13.19299 z"/>
		<path d="m 490.38761,232.10526 h -13.19298 v 33.47369 c 0,9.68421 -2.94737,12.49123 -9.40351,12.49123 -6.45614,0 -9.40351,-2.80702 -9.40351,-12.49123 v -33.47369 h -13.19298 v 37.33334 c 0,14.31579 7.85965,21.61403 22.59649,21.61403 14.73684,0 22.59649,-7.29824 22.59649,-21.61403 z"/>
		<path d="M 503.11678,232.10526 V 290 h 13.19298 V 267.12281 L 533.99397,290 h 16.77193 l -19.92982,-23.92982 c 7.08772,-2.24562 11.85965,-8.07018 11.85965,-16.77193 0,-11.36842 -8.14035,-17.19299 -18.8772,-17.19299 z m 13.19298,25.68421 v -15.15789 h 1.54386 c 4.98246,0 10.94737,0.35088 10.94737,7.57895 0,7.22807 -5.96491,7.57894 -10.94737,7.57894 z"/>
		<path d="m 611.22095,278.07018 c -13.26316,0 -19.08772,-9.26316 -19.08772,-17.05264 0,-7.71929 5.82456,-16.98245 19.08772,-16.98245 6.73684,0 11.36842,3.57895 11.36842,3.57895 l 5.61403,-11.22807 c 0,0 -6.45614,-5.33334 -19.01754,-5.33334 -16.42105,0 -31.36842,13.47369 -31.36842,30.10527 0,16.5614 15.01754,29.89473 31.36842,29.89473 12.5614,0 19.01754,-5.33333 19.01754,-5.33333 l -5.61403,-11.22807 c 0,0 -4.63158,3.57895 -11.36842,3.57895 z"/>
		<path d="m 635.72314,261.01754 c 0,16.91228 12.07017,30.03509 29.19298,30.03509 16.63158,0 29.12281,-13.12281 29.12281,-30.03509 0,-16.91228 -13.05263,-29.96491 -29.12281,-29.96491 -15.92982,0 -29.19298,13.05263 -29.19298,29.96491 z m 14.24561,0 c 0,-8.63157 4.77193,-17.26315 14.94737,-17.26315 10.24562,0 14.87719,8.63158 14.87719,17.26315 0,8.63158 -4.35087,17.26316 -14.87719,17.26316 -10.80702,0 -14.94737,-8.63158 -14.94737,-17.26316 z"/>
		<path d="m 718.05317,254.07018 h 0.14035 L 741.21107,290 h 13.19298 v -57.89474 h -13.19298 v 35.92983 h -0.14036 L 718.05317,232.10526 H 704.86019 V 290 h 13.19298 z"/>
		<path d="M 797.24069,232.10526 H 785.03016 L 761.66174,290 h 14.17544 l 4.2807,-11.57895 h 22.03509 L 806.43367,290 h 14.17544 z m 0.42105,34.73685 H 784.60911 L 791.06525,250 h 0.14035 z"/>
		<path d="m 840.99177,254.07018 h 0.14035 L 864.14966,290 h 13.19299 v -57.89474 h -13.19299 v 35.92983 h -0.14035 L 840.99177,232.10526 H 827.79879 V 290 h 13.19298 z"/>
		<path d="M 914.96438,232.10526 V 290 h 16.77193 c 15.92982,0 29.19298,-12.07018 29.19298,-28.98246 0,-16.8421 -13.33334,-28.91228 -29.19298,-28.91228 z m 13.19298,46.10527 v -34.31579 h 2.03509 c 9.82456,0 16.49122,7.50877 16.49122,17.19298 -0.0702,9.68421 -6.73684,17.12281 -16.49122,17.12281 z"/>
		<path d="m 969.17709,261.01754 c 0,16.91228 12.07017,30.03509 29.19298,30.03509 16.63153,0 29.12283,-13.12281 29.12283,-30.03509 0,-16.91228 -13.0527,-29.96491 -29.12283,-29.96491 -15.92982,0 -29.19298,13.05263 -29.19298,29.96491 z m 14.24561,0 c 0,-8.63157 4.77193,-17.26315 14.94737,-17.26315 10.24563,0 14.87723,8.63158 14.87723,17.26315 0,8.63158 -4.3509,17.26316 -14.87723,17.26316 -10.80702,0 -14.94737,-8.63158 -14.94737,-17.26316 z"/>
		<path d="m 1031.9984,232.10526 21.3333,31.92983 V 290 h 13.193 v -25.96491 l 21.3333,-31.92983 h -15.8596 l -12.0702,18.52632 -12.0702,-18.52632 z"/>
		<path d="m 1108.1793,232.10526 h -13.193 V 290 h 33.1228 v -11.57895 h -19.9298 z"/>
		<path d="m 1172.7199,232.10526 h -33.1228 V 290 h 33.1228 V 278.42105 H 1152.79 v -11.64912 h 19.0878 V 255.19298 H 1152.79 v -11.50877 h 19.9299 z"/>
	</g>
</svg>
